X:1
T:Merry Christmas Bells
T:Merry Christmas Bells
T:Alonzo Judson Abbey
T:Eden Reeder Latta, 1886
T:Public Domain Courtesy of the Cyber Hymnal™
T:Public Domain Courtesy of the Cyber Hymnal™
C:Alonzo Judson Abbey
Z:Public Domain
Z:Courtesy of the Cyber Hymnal™
%%score ( 1 2 ) ( 3 4 )
L:1/8
Q:1/4=55
M:4/8
K:Ab
V:1 treble 
V:2 treble 
V:3 bass 
V:4 bass 
V:1
 [A,C]/[B,D]/ | [CE]/[CE]/[=B,=D]/[CE]/[_DF]/[CE]/[EA]/[E=B]/ | c3 [FB]/[Fc]/ | [Fd][DF][DF][DG] | %4
w: 1.~Hear the|crys- tal in- ton- a- tions of the|bells, Christ- mas|bells, As their tones|
w: 2.~Hear the|sil- ver- y re- ech- oes of the|bells, Christ- mas|bells, Not a strain|
w: 3.~Hear the|gay re- ver- ber- a- tions of the|bells, Christ- mas|bells, And the beau-|
 (A2 E)[A,C]/[B,D]/ | [CE]/[CE]/[=B,=D]/[CE]/[_DF]/[CE]/[EA]/[E=B]/ | c3 [Ec]/[Ec]/ | %7
w: float * on the|air. It is of the mer- ry Christ-|mas that they|
w: of * beau- ty|lose; Hear the tid- ings of re- demp-|tion and of|
w: ty * of their|strain; But re- mem- ber in your mirth-|ful- ness of|
 [FB]/[Fd]/[Fc]/[FB]/[EA][EG] | [EA]3 [EG]/[FA]/ | [GB][GB][GB][Ac] | [GB]3 [EG]/[FA]/ | %11
w: tell, That they tell, And the|mes- sage un-|to all they bear,|They are call-|
w: love, And of love, And be|grate- ful for|the bless- èd news,|Tid- ings of|
w: heart, O- f heart, Our Re-|deem- er’s si-|lent grief and pain;|He was born|
 [GB][GB][GB][Gc] | [GB]3 | [EG]/[FA]/ | [GB][GB][GB][Ge] | [A=d]3 [Be]/[Be]/ | [Af][Af][A=d][Ad] | %17
w: ing un- to us,|Let|us list-|en un- to them,|They are tell-|ing of the Child|
w: the rich- est gift,|Ev-|er made|since time be- gan,|Tell- ing how|the Son of God,|
w: the lost to save,|Born|to wash|their sins a- way,|That is why|we cher- ish so,|
 [Ge]3 ||"^Refrain" [Ac]/[Ad]/ | [Ae]/[A=d]/[Ae]/[Ae]/[Ae]/[Ec]/[CA]/[=DB]/ | [Ec][CE] [Ec]2 | %21
w: That|was born|in Beth- le- hem! * * * *||
w: Came|to die|for sin- ful man! Hear the mer- ry,|mer- ry voic-|
w: Each|re- turn-|ing Christ- mas day! * * * *||
 [Gd][FG] [Gd]2 | [Ec][CE][Ec][Ac]/[Bd]/ | [Ae]/[A=d]/[Ae]/[Af]/[Ae]/[Ec]/[CA]/[=DB]/ | %24
w: |||
w: es of the|Christ- mas bells, Christ- mas|bells, Christ- mas bells; Hear the mer- ry,|
w: |||
 [Ec][CE] [Ec]2 | [GB][Gd][Gc][FB] | [EA][EG] !fermata![EA]4 |] %27
w: |||
w: mer- ry voic-|es of the Christ-|mas bells, Oh,|
w: |||
V:2
 x | x4 | EE/E/E x | x4 | C3 x | x4 | EE/E/E x | x4 | x4 | x4 | x4 | x4 | x3 | x | x4 | x4 | x4 | %17
 x3 || x | x4 | x4 | x4 | x4 | x4 | x4 | x4 | x6 |] %27
V:3
 [A,,A,]/[A,,A,]/ | [A,,B,]/[A,,A,]/[A,,A,]/[A,,A,]/[A,,A,]/[A,,A,]/[C,A,]/[E,G,]/ | %2
 A,[_A,C]/[A,C]/[A,C][D,B,]/[C,=A,]/ | [B,,B,][B,,B,][E,A,][E,B,] | [A,,A,]3 [A,,A,]/[A,,A,]/ | %5
 [A,,A,]/[A,,A,]/[A,,A,]/[A,,A,]/[A,,A,]/[A,,A,]/[C,A,]/[E,G,]/ | A,[A,C]/[A,C]/[A,C]A,/A,/ | %7
 [D,A,]/[D,A,]/[D,A,]/[D,D]/[E,C][E,B,] | [A,,C]3 z | [E,,E,][E,B,][E,B,][E,B,] | %10
 ([E,,E,][E,B,][E,B,])[E,B,] | [D,,E,][E,B,][E,B,][E,B,] | (E,[E,B,][E,B,]) | [E,B,]/[E,B,]/ | %14
 [E,B,][E,E][E,E][E,B,] | [F,B,]3 [G,B,]/[G,B,]/ | [A,C][A,C]B,[B,,B,] | [E,B,]3 || A,/[A,B,]/ | %19
 [A,C]/[A,=B,]/[A,C]/[A,D]/[A,C]/A,/A,/A,/ | A,A, A,2 | [E,B,][E,B,] [E,B,]2 | A,A,A,A,/[A,B,]/ | %23
 [A,C]/[A,=B,]/[A,C]/[A,D]/[A,C]/A,/A,/A,/ | A,A, A,2 | [E,E][E,E][A,E][D,D] | %26
 [E,C][E,B,] [A,,C]4 |] %27
V:4
 x | x4 | =A, x3 | x4 | x4 | x4 | A, x A,/A,/ x | x4 | x4 | x4 | x4 | x4 | E,,3 | x | x4 | x4 | %16
 x2 B, x | x3 || A,/ x/ | x5/2 A,/A,/A,/ | A,A, A,2 | x4 | A,A,A,A,/ x/ | x5/2 A,/A,/A,/ | %24
 A,A, A,2 | x4 | x6 |] %27

